app/assets/images/empty-loc.svg

<svg width="65" height="65" viewBox="0 0 65 65" fill="none" xmlns="http://www.w3.org/2000/svg"><path d="M64.3959 32.4021C64.3959 50.1845 49.9804 64.6 32.198 64.6C14.4155 64.6 0 50.1845 0 32.4021C0 14.6196 14.4155 0.204102 32.198 0.204102C49.9804 0.204102 64.3959 14.6196 64.3959 32.4021Z" fill="#EBF3FA"/><mask id="mask0_2083_1288" style="mask-type:alpha" maskUnits="userSpaceOnUse" x="0" y="0" width="65" height="65"><path d="M64.4135 32.3923C64.4135 50.1796 49.9941 64.599 32.2068 64.599C14.4195 64.599 0 50.1796 0 32.3923C0 14.605 14.4195 0.185547 32.2068 0.185547C49.9941 0.185547 64.4135 14.605 64.4135 32.3923Z" fill="#EBF3FA"/></mask><g mask="url(#mask0_2083_1288)"><path d="M-0.000976562 24.2197C-0.000976562 23.1577 0.859887 22.2969 1.92182 22.2969H17.3042C18.3661 22.2969 19.2269 23.1577 19.2269 24.2197V39.602C19.2269 40.6639 18.3661 41.5248 17.3042 41.5248H1.92182C0.859887 41.5248 -0.000976562 40.6639 -0.000976562 39.602V24.2197Z" fill="#9EACBC" fill-opacity="0.25"/><path d="M24.9951 19.4131C23.9331 19.4131 23.0723 18.5522 23.0723 17.4903L23.0723 13.6447C23.0723 12.5828 23.9331 11.7219 24.9951 11.7219L40.3774 11.7219C41.4393 11.7219 42.3002 12.5828 42.3002 13.6447L42.3002 17.4903C42.3002 18.5522 41.4393 19.4131 40.3774 19.4131L24.9951 19.4131Z" fill="#9EACBC" fill-opacity="0.25"/><path d="M24.9951 7.87598C23.9331 7.87598 23.0723 7.01511 23.0723 5.95318L23.0723 2.1076C23.0723 1.04567 23.9331 0.184806 24.9951 0.184806L40.3774 0.184806C41.4393 0.184806 42.3002 1.04567 42.3002 2.1076L42.3002 5.95318C42.3002 7.01511 41.4393 7.87598 40.3774 7.87598L24.9951 7.87598Z" fill="#9EACBC" fill-opacity="0.25"/><path d="M1.92182 19.4131C0.859887 19.4131 -0.0009766 18.5522 -0.000976647 17.4903L-0.000976815 13.6447C-0.000976861 12.5828 0.859887 11.7219 1.92182 11.7219L17.3042 11.7219C18.3661 11.7219 19.2269 12.5828 19.2269 13.6447L19.2269 17.4903C19.2269 18.5522 18.3661 19.4131 17.3042 19.4131L1.92182 19.4131Z" fill="#9EACBC" fill-opacity="0.25"/><path d="M1.92182 7.87598C0.859887 7.87598 -0.0009766 7.01511 -0.000976647 5.95318L-0.000976815 2.1076C-0.000976861 1.04567 0.859887 0.184806 1.92182 0.184806L17.3042 0.184806C18.3661 0.184806 19.2269 1.04567 19.2269 2.1076L19.2269 5.95318C19.2269 7.01511 18.3661 7.87598 17.3042 7.87598L1.92182 7.87598Z" fill="#9EACBC" fill-opacity="0.25"/><path d="M48.0683 64.5977C47.0064 64.5977 46.1455 63.7368 46.1455 62.6749L46.1455 58.8293C46.1455 57.7673 47.0064 56.9065 48.0683 56.9065L63.4506 56.9065C64.5126 56.9065 65.3734 57.7673 65.3734 58.8293L65.3734 62.6749C65.3734 63.7368 64.5126 64.5977 63.4506 64.5977L48.0683 64.5977Z" fill="#9EACBC" fill-opacity="0.25"/><path d="M48.0683 53.0605C47.0064 53.0605 46.1455 52.1997 46.1455 51.1378L46.1455 47.2922C46.1455 46.2302 47.0064 45.3694 48.0683 45.3694L63.4506 45.3694C64.5126 45.3694 65.3734 46.2302 65.3734 47.2922L65.3734 51.1378C65.3734 52.1997 64.5126 53.0605 63.4506 53.0605L48.0683 53.0605Z" fill="#9EACBC" fill-opacity="0.25"/><path d="M23.0723 47.2929C23.0723 46.231 23.9331 45.3701 24.9951 45.3701H40.3774C41.4393 45.3701 42.3002 46.231 42.3002 47.2929V62.6752C42.3002 63.7372 41.4393 64.598 40.3774 64.598H24.9951C23.9331 64.598 23.0723 63.7372 23.0723 62.6752V47.2929Z" fill="#9EACBC" fill-opacity="0.25"/><path d="M23.0723 24.2197C23.0723 23.1577 23.9331 22.2969 24.9951 22.2969H40.3774C41.4393 22.2969 42.3002 23.1577 42.3002 24.2197V39.602C42.3002 40.6639 41.4393 41.5248 40.3774 41.5248H24.9951C23.9331 41.5248 23.0723 40.6639 23.0723 39.602V24.2197Z" fill="#9EACBC" fill-opacity="0.25"/><path d="M46.1455 24.2197C46.1455 23.1577 47.0064 22.2969 48.0683 22.2969H63.4506C64.5126 22.2969 65.3734 23.1577 65.3734 24.2197V39.602C65.3734 40.6639 64.5126 41.5248 63.4506 41.5248H48.0683C47.0064 41.5248 46.1455 40.6639 46.1455 39.602V24.2197Z" fill="#9EACBC" fill-opacity="0.25"/><path d="M19.2273 50.5737V63.635C19.2273 64.166 18.7968 64.5964 18.2659 64.5964H5.20453C4.34802 64.5964 3.91908 63.5608 4.52472 62.9552L17.586 49.8939C18.1917 49.2882 19.2273 49.7172 19.2273 50.5737Z" fill="#9EACBC" fill-opacity="0.25"/><path d="M-0.00069133 59.3921L-0.000690188 46.3308C-0.000690141 45.7999 0.429742 45.3694 0.960706 45.3694L14.022 45.3694C14.8785 45.3694 15.3075 46.405 14.7018 47.0106L1.64051 60.072C1.03487 60.6776 -0.000691405 60.2487 -0.00069133 59.3921Z" fill="#9EACBC" fill-opacity="0.25"/><path d="M65.3737 5.3891L65.3737 18.4504C65.3737 18.9814 64.9433 19.4118 64.4123 19.4118L51.351 19.4118C50.4945 19.4118 50.0656 18.3763 50.6712 17.7706L63.7325 4.7093C64.3382 4.10365 65.3737 4.53259 65.3737 5.3891Z" fill="#9EACBC" fill-opacity="0.25"/><path d="M46.1458 14.2066L46.1458 1.14527C46.1458 0.61431 46.5762 0.183878 47.1072 0.183878L60.1685 0.183879C61.025 0.183879 61.454 1.21944 60.8483 1.82508L47.787 14.8864C47.1814 15.4921 46.1458 15.0631 46.1458 14.2066Z" fill="#9EACBC" fill-opacity="0.25"/></g><path fill-rule="evenodd" clip-rule="evenodd" d="M0 32.4989C0 14.5548 14.5456 0 32.4989 0C50.4521 0 64.9978 14.5548 64.9978 32.4989H63.1043C63.1043 15.5862 49.3972 1.884 32.4989 1.884C15.6006 1.884 1.89347 15.5862 1.89347 32.4989H0Z" fill="#A8B6C6"/><path fill-rule="evenodd" clip-rule="evenodd" d="M32.4989 64.5995C14.5456 64.5995 0 50.0446 0 32.1006H1.89347C1.89347 49.0133 15.6006 62.7155 32.4989 62.7155C49.3972 62.7155 63.1043 49.0133 63.1043 32.1006H64.9978C64.9978 50.0446 50.4521 64.5995 32.4989 64.5995Z" fill="#A8B6C6"/><path d="M41.8004 27.9C41.7984 29.6163 41.2877 31.2935 40.3327 32.7196C39.3778 34.1457 38.0214 35.2567 36.4352 35.9121C34.849 36.5675 33.104 36.738 31.4209 36.402C29.7378 36.0659 28.1921 35.2384 26.9792 34.0241C25.7663 32.8098 24.9406 31.2632 24.6065 29.5797C24.2724 27.8962 24.4449 26.1514 25.1021 24.566C25.7594 22.9805 26.8719 21.6254 28.2991 20.6721C29.7263 19.7188 31.4041 19.21 33.1204 19.21C35.4234 19.2126 37.6312 20.1293 39.2587 21.7587C40.8862 23.3881 41.8004 25.597 41.8004 27.9Z" fill="#76848C"/><path d="M31.46 53.46C19.27 36.05 17 34.26 17 27.87C17 23.5947 18.6984 19.4945 21.7214 16.4714C24.7445 13.4484 28.8447 11.75 33.12 11.75C37.3953 11.75 41.4955 13.4484 44.5186 16.4714C47.5416 19.4945 49.24 23.5947 49.24 27.87C49.24 34.26 46.97 36.05 34.78 53.46C34.597 53.7322 34.3499 53.9553 34.0605 54.1096C33.771 54.2638 33.448 54.3445 33.12 54.3445C32.792 54.3445 32.469 54.2638 32.1795 54.1096C31.8901 53.9553 31.643 53.7322 31.46 53.46ZM33.12 34.46C34.4229 34.4403 35.6909 34.0359 36.7647 33.2977C37.8384 32.5595 38.6701 31.5204 39.1551 30.311C39.6401 29.1016 39.7568 27.7758 39.4906 26.5002C39.2243 25.2247 38.587 24.0563 37.6588 23.1418C36.7305 22.2274 35.5526 21.6077 34.2732 21.3606C32.9938 21.1136 31.6699 21.2502 30.4679 21.7533C29.2659 22.2564 28.2394 23.1035 27.5174 24.1883C26.7954 25.273 26.4101 26.547 26.41 27.85C26.4087 28.7301 26.5815 29.6018 26.9186 30.4148C27.2557 31.2279 27.7504 31.9661 28.3742 32.5871C28.9979 33.208 29.7384 33.6994 30.5529 34.0329C31.3674 34.3663 32.2399 34.5353 33.12 34.53V34.46Z" fill="#76848C"/><path fill-rule="evenodd" clip-rule="evenodd" d="M33.1199 22.9398C32.1309 22.9398 31.1643 23.233 30.342 23.7824C29.5198 24.3318 28.8789 25.1127 28.5005 26.0264C28.122 26.94 28.023 27.9453 28.2159 28.9152C28.4089 29.8851 28.8851 30.776 29.5843 31.4753C30.2836 32.1746 31.1745 32.6508 32.1444 32.8437C33.1143 33.0366 34.1196 32.9376 35.0333 32.5592C35.9469 32.1807 36.7278 31.5399 37.2772 30.7176C37.8266 29.8954 38.1199 28.9287 38.1199 27.9398C38.1199 26.6137 37.5931 25.3419 36.6554 24.4042C35.7177 23.4666 34.4459 22.9398 33.1199 22.9398ZM25.6799 27.9398C25.6818 26.4687 26.1199 25.0312 26.9386 23.8091C27.7573 22.5869 28.92 21.6348 30.2796 21.0732C31.6393 20.5117 33.1349 20.3657 34.5774 20.6539C36.02 20.9422 37.3448 21.6515 38.3843 22.6924C39.4238 23.7333 40.1314 25.059 40.4176 26.502C40.7039 27.9449 40.556 29.4403 39.9926 30.7992C39.4291 32.1581 38.4755 33.3195 37.2523 34.1366C36.029 34.9537 34.5909 35.3898 33.1199 35.3898C32.1386 35.3898 31.167 35.1957 30.2611 34.8187C29.3552 34.4417 28.5328 33.8892 27.8412 33.193C27.1497 32.4968 26.6027 31.6707 26.2318 30.7623C25.8608 29.8538 25.6733 28.881 25.6799 27.8998V27.9398Z" fill="#76848C"/><path style="mix-blend-mode:multiply" opacity="0.25" d="M33.1201 18.8701L33.1801 54.3101C33.5034 54.3123 33.8223 54.2361 34.1097 54.0881C34.3971 53.9401 34.6443 53.7246 34.8301 53.4601C44.7001 39.3701 48.0701 35.4601 48.9901 31.1601L33.1201 18.8701Z" fill="url(#paint0_linear_2083_1288)"/><path d="M36.1798 21.5296C36.1284 20.7653 35.7767 20.0525 35.2015 19.5466C34.6263 19.0407 33.8744 18.783 33.1098 18.8296C32.3475 18.7883 31.5996 19.0483 31.0272 19.5533C30.4548 20.0584 30.1038 20.7681 30.0498 21.5296V33.0496C30.1038 33.8129 30.4562 34.5242 31.0308 35.0296C31.6054 35.5349 32.3559 35.7936 33.1198 35.7496C33.8827 35.7935 34.6321 35.5345 35.2051 35.0289C35.7781 34.5233 36.1284 33.812 36.1798 33.0496V21.5296Z" fill="white"/><path d="M36.18 41.0104C36.18 40.4032 36 39.8097 35.6627 39.3048C35.3253 38.8 34.8458 38.4065 34.2849 38.1741C33.7239 37.9418 33.1066 37.881 32.5111 37.9994C31.9156 38.1179 31.3686 38.4103 30.9392 38.8396C30.5099 39.269 30.2175 39.816 30.099 40.4115C29.9806 41.007 30.0414 41.6243 30.2737 42.1853C30.5061 42.7462 30.8996 43.2257 31.4044 43.563C31.9093 43.9004 32.5029 44.0804 33.11 44.0804C33.9243 44.0804 34.7051 43.757 35.2809 43.1812C35.8566 42.6055 36.18 41.8246 36.18 41.0104Z" fill="white"/><defs><linearGradient id="paint0_linear_2083_1288" x1="32.3401" y1="36.0501" x2="41.0601" y2="41.7501" gradientUnits="userSpaceOnUse"><stop offset="0.02" stop-color="#606060"/><stop offset="1" stop-color="white"/></linearGradient></defs></svg>

<svg xmlns="http://www.w3.org/2000/svg" width="65" height="65" fill="none" viewBox="0 0 65 65"><path fill="#EBF3FA" d="M64.396 32.402c0 17.783-14.416 32.198-32.198 32.198S0 50.185 0 32.402C0 14.62 14.416.204 32.198.204S64.396 14.62 64.396 32.402"/><mask id="a" width="65" height="65" x="0" y="0" maskUnits="userSpaceOnUse" style="mask-type:alpha"><path fill="#EBF3FA" d="M64.414 32.392c0 17.788-14.42 32.207-32.207 32.207S0 50.179 0 32.392 14.42.186 32.207.186s32.207 14.419 32.207 32.206"/></mask><g fill="#9EACBC" fill-opacity=".25" mask="url(#a)"><path d="M-.001 24.22c0-1.062.86-1.923 1.923-1.923h15.382c1.062 0 1.923.86 1.923 1.923v15.382c0 1.062-.86 1.923-1.923 1.923H1.922a1.923 1.923 0 0 1-1.923-1.923zm24.996-4.807a1.923 1.923 0 0 1-1.923-1.923v-3.845c0-1.062.861-1.923 1.923-1.923h15.382c1.062 0 1.923.86 1.923 1.923v3.845c0 1.062-.86 1.923-1.923 1.923zm0-11.537a1.923 1.923 0 0 1-1.923-1.923V2.108c0-1.062.861-1.923 1.923-1.923h15.382c1.062 0 1.923.86 1.923 1.923v3.845c0 1.062-.86 1.923-1.923 1.923zM1.922 19.413A1.923 1.923 0 0 1-.001 17.49v-3.845c0-1.062.86-1.923 1.923-1.923h15.382c1.062 0 1.923.86 1.923 1.923v3.845c0 1.062-.86 1.923-1.923 1.923zm0-11.537A1.923 1.923 0 0 1-.001 5.953V2.108c0-1.062.86-1.923 1.923-1.923h15.382c1.062 0 1.923.86 1.923 1.923v3.845c0 1.062-.86 1.923-1.923 1.923zm46.146 56.722a1.923 1.923 0 0 1-1.922-1.923v-3.846c0-1.062.86-1.922 1.922-1.922h15.383c1.062 0 1.922.86 1.922 1.922v3.846c0 1.062-.86 1.923-1.922 1.923zm0-11.538a1.923 1.923 0 0 1-1.922-1.922v-3.846c0-1.062.86-1.923 1.922-1.923h15.383c1.062 0 1.922.861 1.922 1.923v3.846c0 1.062-.86 1.922-1.922 1.922zm-24.996-5.767c0-1.062.861-1.923 1.923-1.923h15.382c1.062 0 1.923.861 1.923 1.923v15.382c0 1.062-.86 1.923-1.923 1.923H24.995a1.923 1.923 0 0 1-1.923-1.923zm0-23.073c0-1.062.861-1.923 1.923-1.923h15.382c1.062 0 1.923.86 1.923 1.923v15.382c0 1.062-.86 1.923-1.923 1.923H24.995a1.923 1.923 0 0 1-1.923-1.923zm23.074 0c0-1.062.86-1.923 1.922-1.923h15.383c1.062 0 1.922.86 1.922 1.923v15.382c0 1.062-.86 1.923-1.922 1.923H48.068a1.923 1.923 0 0 1-1.922-1.923zM19.227 50.574v13.061a.96.96 0 0 1-.961.961H5.205c-.857 0-1.286-1.035-.68-1.64l13.061-13.062c.606-.606 1.641-.177 1.641.68M0 59.392V46.331c0-.531.43-.962.96-.962h13.062c.857 0 1.285 1.036.68 1.642L1.64 60.072c-.606.606-1.642.177-1.642-.68M65.374 5.39v13.06c0 .531-.43.962-.962.962H51.351c-.856 0-1.285-1.036-.68-1.641L63.733 4.709c.605-.605 1.64-.176 1.64.68m-19.227 8.818V1.145c0-.53.43-.961.961-.961H60.17c.856 0 1.285 1.035.68 1.641L47.786 14.886c-.606.606-1.641.177-1.641-.68"/></g><path fill="#A8B6C6" fill-rule="evenodd" d="M0 32.499C0 14.555 14.546 0 32.499 0s32.499 14.555 32.499 32.499h-1.894c0-16.913-13.707-30.615-30.605-30.615S1.893 15.586 1.893 32.499z" clip-rule="evenodd"/><path fill="#A8B6C6" fill-rule="evenodd" d="M32.499 64.6C14.546 64.6 0 50.045 0 32.1h1.893c0 16.913 13.708 30.615 30.606 30.615s30.605-13.702 30.605-30.614h1.894c0 17.944-14.546 32.499-32.5 32.499" clip-rule="evenodd"/><path fill="#76848C" d="M41.8 27.9a8.68 8.68 0 1 1-8.68-8.69 8.69 8.69 0 0 1 8.68 8.69"/><path fill="#76848C" d="M31.46 53.46C19.27 36.05 17 34.26 17 27.87a16.12 16.12 0 0 1 32.24 0c0 6.39-2.27 8.18-14.46 25.59a2.002 2.002 0 0 1-3.32 0m1.66-19a6.61 6.61 0 1 0-6.71-6.61 6.67 6.67 0 0 0 6.71 6.68z"/><path fill="#76848C" fill-rule="evenodd" d="M33.12 22.94a5 5 0 1 0 0 10 5 5 0 0 0 0-10m-7.44 5a7.44 7.44 0 1 1 .552 2.822 7.4 7.4 0 0 1-.552-2.862z" clip-rule="evenodd"/><path fill="url(#b)" d="m33.12 18.87.06 35.44a2 2 0 0 0 1.65-.85c9.87-14.09 13.24-18 14.16-22.3z" opacity=".25" style="mix-blend-mode:multiply"/><path fill="#fff" d="M36.18 21.53a2.9 2.9 0 0 0-3.07-2.7 2.91 2.91 0 0 0-3.06 2.7v11.52a2.91 2.91 0 0 0 3.07 2.7 2.9 2.9 0 0 0 3.06-2.7zm0 19.48a3.07 3.07 0 1 0-6.14 0 3.07 3.07 0 0 0 6.14 0"/><defs><linearGradient id="b" x1="32.34" x2="41.06" y1="36.05" y2="41.75" gradientUnits="userSpaceOnUse"><stop offset=".02" stop-color="#606060"/><stop offset="1" stop-color="#fff"/></linearGradient></defs></svg>
